icons/fill-new-medic-health-building-hospital.svg

<svg xmlns="http://www.w3.org/2000/svg" width="32px" height="32px" viewBox="0 0 32 32" version="1.1">
    <title>fill-new-medic-health-building-hospital</title>
    <g id="fill-new-medic-health-building-hospital" stroke-width="1" fill-rule="evenodd">
        <path d="M3,29 C2.44771525,29 2,28.5522847 2,28 C2,27.4477153 2.44771525,27 3,27 L4,27 L4,4 C4,3.44771525 4.44771525,3 5,3 L19,3 C19.5522847,3 20,3.44771525 20,4 L20,29 L3,29 Z M12,8 C11.4477153,8 11,8.44771525 11,9 L11,11 L9,11 C8.48716416,11 8.06449284,11.3860402 8.00672773,11.8833789 L8,12 C8,12.5522847 8.44771525,13 9,13 L11,13 L11,15 C11,15.5128358 11.3860402,15.9355072 11.8833789,15.9932723 L12,16 C12.5522847,16 13,15.5522847 13,15 L13,13 L15,13 C15.5128358,13 15.9355072,12.6139598 15.9932723,12.1166211 L16,12 C16,11.4477153 15.5522847,11 15,11 L13,11 L13,9 C13,8.48716416 12.6139598,8.06449284 12.1166211,8.00672773 L12,8 Z M22,29 L22,11 L27,11 C27.5522847,11 28,11.4477153 28,12 L28,27 L29,27 C29.5522847,27 30,27.4477153 30,28 C30,28.5522847 29.5522847,29 29,29 L22,29 Z" id="&#24418;&#29366;" />
    </g>
</svg>

<svg xmlns="http://www.w3.org/2000/svg" viewBox="0 0 32 32"><path fill="currentColor" d="M3 29a1 1 0 0 1 0-2h1V4a1 1 0 0 1 1-1h14a1 1 0 0 1 1 1v25zm9-21a1 1 0 0 0-1 1v2H9a1 1 0 0 0-.993.883L8 12a1 1 0 0 0 1 1h2v2a1 1 0 0 0 .883.993L12 16a1 1 0 0 0 1-1v-2h2a1 1 0 0 0 .993-.883L16 12a1 1 0 0 0-1-1h-2V9a1 1 0 0 0-.883-.993zm10 21V11h5a1 1 0 0 1 1 1v15h1a1 1 0 0 1 0 2z"/></svg>
